web/themes/quartiers_solidaires/assets/icons/theme_activitescreatrices.svg

<svg id="Calque_1" data-name="Calque 1" xmlns="http://www.w3.org/2000/svg" viewBox="0 0 80 80">
  <defs>
    <style>
      .cls-1{fill:currentColor}
    </style>
  </defs>
  <path class="cls-1" d="M47 31.5A11.5 11.5 0 1 1 58.5 20 11.51 11.51 0 0 1 47 31.5zm0-20a8.5 8.5 0 1 0 8.5 8.5 8.51 8.51 0 0 0-8.5-8.5z"/>
  <path class="cls-1" d="M27 51.5a1.5 1.5 0 0 1-1.5-1.5 6.51 6.51 0 0 1 6.5-6.5 3.5 3.5 0 0 0 3.5-3.5A11.51 11.51 0 0 1 47 28.5a1.5 1.5 0 0 1 0 3 8.51 8.51 0 0 0-8.5 8.5 6.51 6.51 0 0 1-6.5 6.5 3.5 3.5 0 0 0-3.5 3.5 1.5 1.5 0 0 1-1.5 1.5zM33.87 71.5a12.86 12.86 0 0 1-3.29-.43A1.5 1.5 0 0 1 29.52 70a12.66 12.66 0 0 1 15.53-15.53 1.5 1.5 0 0 1 1.07 1.07 12.63 12.63 0 0 1-12.25 16zm-1.64-3.14a9.64 9.64 0 0 0 11.18-11.19 9.64 9.64 0 0 0-11.18 11.19z"/>
  <path class="cls-1" d="M44.67 57.42a1.5 1.5 0 0 1-1.06-2.56l25.33-25.34a1.5 1.5 0 0 1 2.12 2.12L45.73 57a1.5 1.5 0 0 1-1.06.42z"/>
  <path class="cls-1" d="M64.18 56.73a1.49 1.49 0 0 1-.75-.2L24.19 33.87a1.5 1.5 0 0 1 1.5-2.6l39.24 22.66a1.5 1.5 0 0 1-.75 2.8z"/>
  <path class="cls-1" d="M17.41 36.08a16.3 16.3 0 0 1-8.16-2.17 1.5 1.5 0 0 1-.55-2l7.5-13a1.5 1.5 0 0 1 2-.55 16.54 16.54 0 0 1 8.19 14.25 1.5 1.5 0 0 1-.75 1.31 16.66 16.66 0 0 1-8.23 2.16zM12.09 32a13.33 13.33 0 0 0 11.32-.3 13.32 13.32 0 0 0-5.4-10z"/>
</svg>

<svg id="Calque_1" data-name="Calque 1" xmlns="http://www.w3.org/2000/svg" viewBox="0 0 80 80"><defs><style>.cls-1{fill:currentColor;}</style></defs><title>ActivitesCreatrices_S</title><path class="cls-1" d="M47,31.5A11.5,11.5,0,1,1,58.5,20,11.51,11.51,0,0,1,47,31.5Zm0-20A8.5,8.5,0,1,0,55.5,20,8.51,8.51,0,0,0,47,11.5Z"/><path class="cls-1" d="M27,51.5A1.5,1.5,0,0,1,25.5,50,6.51,6.51,0,0,1,32,43.5,3.5,3.5,0,0,0,35.5,40,11.51,11.51,0,0,1,47,28.5a1.5,1.5,0,0,1,0,3A8.51,8.51,0,0,0,38.5,40,6.51,6.51,0,0,1,32,46.5,3.5,3.5,0,0,0,28.5,50,1.5,1.5,0,0,1,27,51.5Z"/><path class="cls-1" d="M33.87,71.5a12.86,12.86,0,0,1-3.29-.43A1.5,1.5,0,0,1,29.52,70,12.66,12.66,0,0,1,45.05,54.47a1.5,1.5,0,0,1,1.07,1.07,12.63,12.63,0,0,1-12.25,16Zm-1.64-3.14A9.64,9.64,0,0,0,43.41,57.17,9.64,9.64,0,0,0,32.23,68.36Z"/><path class="cls-1" d="M44.67,57.42a1.5,1.5,0,0,1-1.06-2.56L68.94,29.52a1.5,1.5,0,0,1,2.12,2.12L45.73,57A1.5,1.5,0,0,1,44.67,57.42Z"/><path class="cls-1" d="M64.18,56.73a1.49,1.49,0,0,1-.75-.2L24.19,33.87a1.5,1.5,0,0,1,1.5-2.6L64.93,53.93a1.5,1.5,0,0,1-.75,2.8Z"/><path class="cls-1" d="M17.41,36.08a16.3,16.3,0,0,1-8.16-2.17,1.5,1.5,0,0,1-.55-2l7.5-13a1.5,1.5,0,0,1,2-.55,16.54,16.54,0,0,1,8.19,14.25,1.5,1.5,0,0,1-.75,1.31A16.66,16.66,0,0,1,17.41,36.08ZM12.09,32a13.33,13.33,0,0,0,11.32-.3,13.32,13.32,0,0,0-5.4-10Z"/></svg>
